X:4040
T:Mist-Covered Mountains of Home
M:3/4 
L:1/8
S:Jody Stecher, "Snake Baked a Hoecake"
R:Waltz
K:Am
|: z4 E2 |A3B A2|A2 c2 d2 | e2 A3 B|A2 G2 E2|G3A G2|G2 B2 c2 |d2 A3B|A2G2E2|
|c3 B c2 | d3 c d2 | e2 f2 g2 | B3A G2 | A3 ^c e2 | d3 c B2 | A6  :|
|: z4 e2 | e2A2e2 | e4 e2 | d2e2g2| e3d BA |G3A G2| d6 |e3d e2 |d2 c2 B2 |
